X:1
T:Cinq Poëmes de Baudelaire
T:Harmonie du Soir
T:2. Harmonie du Soir
T:Cinq Poëmes de Baudelaire
T:Claude Debussy
T:Charles Baudelaire
T:OpenScore (CC0)
T:OpenScore (CC0)
T:OpenScore (CC0)
T:OpenScore (CC0)
T:OpenScore (CC0)
T:OpenScore (CC0)
T:OpenScore (CC0)
T:OpenScore (CC0)
T:OpenScore (CC0)
C:Claude Debussy
Z:Charles Baudelaire
Z:OpenScore (CC0)
%%score 1 { ( 2 3 7 9 ) | ( 4 5 6 8 ) }
L:1/8
Q:1/4=60
M:3/4
K:B
V:1 treble nm="Chant\nVoice" snm="\n\n\n\n\n\n\n\n\n\n\n\n\n\n\n\n\n\n\n\n\n\n"
V:2 treble nm="Piano"
V:3 treble 
V:7 treble 
V:9 treble 
V:4 bass 
V:5 bass 
V:6 bass 
V:8 bass 
V:1
"_Andante tempo rubato""^Andante tempo rubato" z6 | z2 z2 z!p! (E | =G3 =A B c | d2 c2 d2 | %4
w: |Voi-|ci ve- nir les|temps où vi-|
 d2 c2 e2 | e4 =G2) |!p! (F d c2 B ^E | G F B c d f | d6-) | d2 z2!p! (G2 | e3 e d c | %11
w: brant sur sa|ti- ge,|Cha- que fleur s'é- va-|pore ain- si qu'un en- cen-|soir; |_ Les|sons et les par-|
 c B F D E F | =G4) z2 |[Q:1/4=65]"_animez un peu" z2 (3z!p!!<(! (F F (3F F F | %14
w: fums tour- nent dans l'air du|soir;|Val- se mé- lan- co-|
 c!<)! B F =D!>(! E F)!>)! |[M:2/4]!p! F2- F z || %16
w: lique et lan- gou- reux ver-|ti- ge|
[M:3/4][Q:1/4=60]"_a tempo"[Q:1/4=60]"^a tempo" (3z (F d c2 B ^E | G F B c d f | d4) z2 | %19
w: Cha- que fleur s'é- va-|pore ain- si qu'un en- cen-|soir;|
[Q:1/4=64]"^animando poco a poco" z2 (d2 c[Q:1/4=68]"^T" B | A G[Q:1/4=72]"^T" B2 c!<(! =d) || %21
w: Le vi- o-|lon fré- mit com- me~un|
[M:2/4] (^dc A B!<)! |!>(! ^B3 ^^F)!>)! || %23
w: coeur * qu'on af-|fli- ge,|
[M:3/4][Q:1/4=72]"^poco string." z!p! (G2"^cresc." G[Q:1/4=74]"^T" (3G G G | d c G E F G) | %25
w: Val- se mé- lan- co-|li- que~et lan- gou- reux ver-|
 =A4- A z |[Q:1/4=70]"^T" z2[Q:1/4=67]"^T" z2[Q:1/4=64]"^T" z!p! (=D || %27
w: ti- ge,|Le|
[K:C][Q:1/4=72]"_Tranquillo"[Q:1/4=58]"^Tranquillo" D3 ^F A F |"^dim." D2 ^F2 A2 | c2 G2 E2 | %30
w: ciel est triste et|beau comme un|grand re- po-|
 E4) z2 |[Q:1/4=67]"^Tempo animando ma non troppo" z2!p! (c2 _B _A | G F _A2 _B =B | %33
w: soir;|Le vi- o-|lon fré- mit comme un|
!<(! (c3 _B) G _A!<)! |!>(! =f4!>)! e2) | %35
w: coeur _ qu'on af-|fli- ge,|
[Q:1/4=64]"_Poco rit."[Q:1/4=62]"^Poco rit." z2!p!"^espress." (^c2 B2 | B2 A2) z (^G | %37
w: Un coeur|ten- dre, qui|
 =G G!<(! G G ^G B!<)! |[Q:1/4=58]"^Tranquillo" =G2) z2 z!p! (B, | C3 E G E | C2 E2 G2 | %41
w: hait le né- ant vas- te~et|noir! Le|ciel est triste et|beau comme un|
 _B2 F2 D2 | D4) z2 |[Q:1/4=55]"_Molto calmato"[Q:1/4=55]"^Molto calmato" z6 | %44
w: grand re- po-|soir,||
 z2!p! (^F F (3F ^G ^A | ^A2!<(! A A (3!tenuto!^B!<)!!>(! !tenuto!B !tenuto!B!>)! | ^B ^A3) z2 | %47
w: Le so- leil s'est no-|yé dans son sang qui se|fi- ge…|
 z6 ||[K:E][Q:1/4=65]"^Tempo animando" z2!p!"^espress." (d2 c2 | c2 B2) z (^A | =A A A A ^A c | %51
w: |Un coeur|ten- dre, qui|hait le né- ant vaste et|
 =A4)!p! (G F | %52
w: noir, Du pas-|
[Q:1/4=67]"^poco  a  poco  string."!p! =d3"^cresc." B[Q:1/4=71]"^T" ^A c[Q:1/4=69]"^T" | =d4) (B2 | %54
w: sé _ lu- mi-|neux re-|
!f! f3 e c A | G4 =D2-) |[Q:1/4=66]"_rit. molto dim" D2 z2[Q:1/4=62]"^T" z2 || %57
w: cueil- le tout ves-|ti- ge.|_|
[K:B][Q:1/4=68]"_Calmato"[Q:1/4=58]"^Calmato" z6 | z2!p! (B, B, (3B, C D | %59
w: |Le so- leil s'est no-|
 D2 D D (3!tenuto!^E !tenuto!E !tenuto!E | ^E D3) z2 | z6 | z2!p! (=D2 ^E G | c2 =d2 B2 | %64
w: yé dans son sang qui se|fi- ge||Ton sou- ve-|nir en moi|
 =f4)!pp! (f2 | =f2 e2 f2 |[Q:1/4=55]"_Lent" ^f6-) | f4 z2 | z6 ||[M:2/4] z4 | z4 || %71
w: luit comme|un os- ten-|soir.|||||
[M:3/4][Q:1/4=45]"_Très retenu" z6 |[Q:1/4=35]"_T" z6 |] %73
w: ||
V:2
!pp! (c6- |!<(! c4 d2)!<)! |!p!!>(! [=G-=A]2!>)! [CGAc] (=A,B,C |!>(! [B,D]2!>)! [=A,C]4) | %4
 [DBd]2 ([C=Ac]4 | D C2 D2 E) | ([DF]2 ^E2 G2 | c2 B2 F2) | %8
 ([G^B](3[FA]/B/A/ [DF])[K:bass] (F,G,A, |!>(! (3:2:2[G,^B,] [F,A,]2-)!>)! [F,A,][K:treble] G-A^B | %10
!p! (3[Dd][Cc]e ga[=B=b][cc'] | [df]2[I:staff +1] F!<(![I:staff -1]Bcd!<)! | %12
 (3:2:2d [=Ac]2- [Ac] =A,B,C | %13
!<(! [=A,=D]2!pp! (6:4:6z/ (F/=d/!<)!f/!>(!f/=d'/ (6:4:6f'/d'/f/f/d/F/)!>)! | %14
!<(! [F=A]>G!pp! x4!<)! |[M:2/4] x4 || %16
[M:3/4]!pp! (6:4:6z/ (F/^d/f/f/^d'/ (6:4:6f'/d'/f/f/d/F/) ^E2 | %17
 (6:4:6z/ (F/d/f/f/d'/ (6:4:6f'/d'/f/f/d/F/)!>(! (3(F[K:bass]F,B,,)!>)! | %18
[K:treble]!>(! (=A(3=G/A/G/!>)!!p! _E2- (3E=D=C) | B, A,2 ^CD=E | %20
!<(! (a(3g/a/g/!<)!!>(! ^e2 GB)!>)! ||[M:2/4]!<(! (B(3A/B/A/ ^^F!<)!G) |!<(! (g(3f/g/f/ d!<)!e) || %23
[M:3/4]!p! [Bb]>[Aa] [cegc']2 x2 | [Bb]>[Aa] [cegc']2 x2 | %25
!f! (3([gd'g'][ff']3/2[Bd]/) (3c=A3/2F/ G(3F/G/F/ | %26
"^dim." (3(gf3/2[Bd]/ (3[=Ac][FA]3/2[DF]/) (F(3E/F/E/) || %27
[K:C] (^F(3E/F/E/) (F(3E/F/E/) (F(3E/F/E/) | (^F(3E/F/E/) (F(3E/F/E/) (FE) |"_dim." ^F E2 D2 C | %30
[K:bass] [E,G,]4 z2 | (_A, G,2 _B,C_D) |[K:treble] (g(3f/g/f/ d2 F_A-) | %33
!<(! (A(3G/_A/G/ E2 F2)!<)! |!>(! (_d(3c/d/c/ A2!>)! _B2-) |!p!"_dim." (_B4 =B2 | %36
 [=Ge]2) (^C2-!<(! (3C=ED!<)! | D(3^C/D/C/!<(! A,2 _B,=B,!<)! |"_dim." [_B,D]4) ([G_B][^G=B] | %39
 [Ac][^G=B][=G_B][^G=B][Ac][GB] | [=G_B]2) (ED- DE | [D=F]6) | [DF]4 z2 | %43
!<(! ([^G,^C^A]4!<)!!p! !arpeggio![^^F,C^B-]2 | %44
!>(! ^B!>)!!pp! =A2) (!tenuto![^D^d]2 !tenuto![^E^e]) | [^C^G^A]4!>(! ^B2-!>)! | %46
!>(! ^B^A!>)!!p! (^b(3^a/b/a/ ^f2) | ^B,^A, ^B(3^A/B/A/ ^F^G ||[K:E] z2!p! (g3!p! g | %49
!p! f2 D2- (3DFE | E(3D/E/D/ B,2) ^B,C | (e(3d/e/d/ [AB]2 gf) | %52
 ([cc']"_cresc."(3[Bb]/[cc']/[Bb]/ [Ff]2- (3[Ff][^Dd][Ee] | c(3B/c/B/ F2- (3F=DB,-) | %54
 (B,(3A,/B,/A,/ CE!<(! (3Ace!<)! |!mf!!<(! [=F=c=f]2 [^FB^f]2 [G=dg]2-)!<)! | %56
!p! ([Gdg]2"_dim." [Bfb]2 [=df=d']2 ||[K:B]!p! ([^df^d']2) z2 z2 | E D2)!p!!>(! ([Gg]2!>)! [Aa]) | %59
!p! (c2!<(! d2 ^e2-!<)! |!>(! e d2!>)! ^edB | ^E D2 EDB,) | (A G2 AG^E) | (c B2 cBG) | %64
 (!tenuto!=a =g2 a2 g- | =g =a2 g2 a |!pp! b2) z2 z2 | z2 (3z!pp! (F=d (3f)(f=d' | %68
 !tenuto!.[fb^d'f']2) (F2 G2- ||[M:2/4] G2 (3FGF | [B,D]4) ||[M:3/4] z2 z/ (F/d/f/- (3ffd' | %72
 !arpeggio!!fermata![fd'f']6) |] %73
V:3
 [EG]6- | [EG]6 | (3:2:2[Ed] [Cc]2- x4 | =G,6 | x4 (3=A,B,C | x6 | x2 =D4 | ^D4 B,2 | %8
 ^B,6[K:bass] | D,2- D,[K:treble] x3 | G2 x2 e2 | (3:2:2[cc'] [Bb]2- [Bb] x3 | [=G-B]2 G x3 | %13
 [F=A]>^^G x4 | [=A,=D]2 (6:4:6z/ (F/=d/f/f/=d'/ (6:4:6f'/d'/f/f/d/F/) | %15
[M:2/4] (6:4:6z/"_dim." (F/=d/f/f/=d'/ (6:4:6f'/d'/f/f/d/F/) ||[M:3/4] x6 | x14/3[K:bass] x4/3 | %18
[K:treble] [=G,=C_E]4 x2 | ^^F,6 | [B=d]4 F=F ||[M:2/4] =E3 ^E | =A3 ^A || %23
[M:3/4] [eg]2 (6:4:6z/"_cresc." (G/e/g/g/e'/ (6:4:6g'/e'/g/g/e/G/) | %24
 [eg]2 (6:4:6z/ (G/e/g/g/e'/ (6:4:6g'/e'/g/g/e/[Gg]/) | x2 (3=AF3/2F/ [=A,=C]2 | %26
 [=A,^C^D]4 [A,=C][^A,^C] ||[K:C] ([B,D][^A,^C] [=A,=C][^A,^C] [B,D][A,C]) | %28
 ([=A,=C][^A,^C] [B,D][A,C] [=A,=C]2) | [G,C]6 |[K:bass] (D, C,2 D,2 E,) | E,6 | %32
[K:treble] =B4 _E=D | _D4 =D2 | _G4 =G2- | (G4 ^G2) | D2 ^C2 B,2 | x4 F,2 | x4 E(3D/E/D/ | %39
 E(3D/E/D/ E(3D/E/D/ E(3D/E/D/ | E(3D/E/D/ ED DE | (C _B,2 C2 B,- | _B, C2 B,2 A,) | x6 | %44
 [^F,^A,^C]6 | x4 [^A,^^F]2 | x2 [^c^f]4 | (^F,2 [^C^F]4) ||[K:E] [=CE][CE] x4 | %49
 !arpeggio![D=A]2 B,2 C2 | [^F,=A,]4 ^A,2 | A2 x2 [AB]2 | f2 B2 ^A2 | =D4 G,2 | x2 x C E2 | x6 | %56
 x6 ||[K:B] x2 !tenuto!D2 !tenuto!^E2- | =B,3 x x2 | F6 | [DF]6 | [F,B,]6 | [G,B,=D]4 [B,D]2 | %63
 [=D^E]4 [EG]2 | !>![=F=GB=d]4 x2 | [=F=GB=d]4 [=d=f]2 | [B^d^f]2 (F2 G2- | [=DG]2 [DF]4) | %68
 z2 z2 z2 ||[M:2/4] [F,^B,D]4 | x4 ||[M:3/4] [^G,B,D]2 [A,D]4 | !arpeggio![DFB]6 |] %73
V:4
 z2 z2 C2- | C(3B,/C/B,/ G,4 | [=A,,=G,]6 | x2[K:treble] (3z E=G z2 |[K:bass] =G,2- (3G,E,G, x2 | %5
 [F,,E,]6 |!pp! (F,2 ^G,2 ^E,2 | F,4 D,2) |!pp! z (G,, D,4) | (3z z[K:treble] D F4 | %10
[K:bass] (3z z (E [EG]4) | (3z z (D x4 |!pp! (3z) z =A,, E,=G,- G,2 |!p! z2[K:treble] B2 _B2 | %14
[K:bass] z2[K:treble] ^c2 =c2 |[M:2/4]!p! !arpeggio![G,=DF]4 ||[M:3/4] (B2 F2 G2 | B2 F2 B,2) | %18
[K:bass] z2 z (=G,,=C,=G,) | (^C,4 A,,2 | ^E)FAG =D2 ||[M:2/4] (C3 =D | ^DEF^^F) || %23
[M:3/4] x4[K:treble] [=c=c']2 |[K:bass] x2[K:treble] !>![A,EG]4 | %25
[K:bass] (3=A,B,3/2C/ (3[DF]C3/2B,/ =D,2 | (3x x3/2 F/ (3DC3/2B,/ x2 ||[K:C]!p! [G,,D,]6 | %28
!p! [G,,D,]6 | [C,,G,,]6- |!pp! [C,,G,,]6 | (_B,,4 G,,2 | =D_EGF B,2) | _B,4 =B,2 | _E4 =E2- | %35
 (E E2 E2 E) | (E,,A,,E,G, [^E,^G,]2) | [=E,=G,]4 ^G,2 |!p! G,4 (_B,=B, |!pp! C=B,_B,=B,CB,) | %40
 _B,2 [G,B,]4 |!pp! F,6 | [_B,,F,]4 z2 |!pp! E,4 ^A,,2 | %44
 z2 z[K:treble] (!tenuto![^F^A]2 !tenuto![FA]) |[K:bass] (^A,(3^G,/A,/!<(!G,/ E,2!<)! ^A,,2) | %46
!p! z2[K:treble] !tenuto!.[Ee]4 |[K:bass]!pp! z2[K:treble] !tenuto!.[Ee]4 ||[K:E][K:bass]!p! F,6 | %49
 (F,,B,,F,A, [^^F,^A,]2) | B,,3 F, [E,=G,]2 | z (F,A,B,CD | [=DF]2 D2 C2) | G,2 B,,2 =D,2 | x6 | %55
 ([G,=D]4 [B,F]2- | [B,F]2 =D4) ||[K:B] !tenuto!C2 x4 | [D,F,]2 z[K:treble] ([Bd]2 [Bd]) | %59
[K:bass] (D(3C/D/C/- [=A,C]2 ^B,2 | [F,=B,]6) | G,,4 F,,2 |!pp! z2 (B,,2 =D,^E, | G,2 B,2 =D2) | %64
 z2 =D,2 =G,2 | =D2 =G2 x2 | x2 (F,2 G,2 | [G,B,]2 [F,=A,]4) | !tenuto!.[B,,,F,,]4 z2 || %69
[M:2/4]!pp! G,,4 | ^E,2 =G,2 ||[M:3/4]!ppp! B,,2 (F, G,2 F,) | %72
!pppp!"_lentement\narpègé" !arpeggio![D,B,]6 |] %73
V:5
 x6 | x2 G,2 B,,2 | (3z z (=A,, E,=G,-) G,2 | [=A,,,E,,]6[K:treble] |[K:bass] =A,,6 | [=G,^A,]6 | %6
 B,,6 | =A,,6 | [G,,,D,,]6 | x4/3[K:treble] x8/3 (G,2 |[K:bass] [C,G,]4) F,2 | [B,,F,]6 | %12
 [=A,,,E,,]6 | [=A,,,=A,,]6[K:treble] |[K:bass] [=A,,,=A,,]6[K:treble] |[M:2/4] ^c2 =c2 || %16
[M:3/4] [=A,B,^D]4 [G,B,C]2 | [=A,B,D]4 z2 |[K:bass] !arpeggio![=C,,=G,,_E,]4 x2 | D,,6 | %20
 ([G,=D]4 B,G,) ||[M:2/4] ^^F,G,A,B, | ^B,3 C ||[M:3/4] z2[K:treble] !>![A,EG]4 | %24
[K:bass] [B,,,B,,]6[K:treble] |[K:bass] !arpeggio![B,,,B,,D,]2- [B,,,B,,D,] z x2 | %26
 [B,,,B,,]2 z2 =D,2 ||[K:C] x6 | x6 | x6 | x6 | C,,6 | _A,4 A,F, | (E,=F, G,2 _A,2) | %34
 (=A,_B, C2 _D2) | =D6 | A,,,4 x2 | (A,,3 E, D,2) | (E,(3D,/E,/D,/) (E,(3D,/E,/D,/) E,2 | %39
 [F,,C,]6 | [F,,C,]6 | [_B,,,F,,]6 | x6 | (^A,,!pp!(3^G,,/A,,/G,,/ E,,4) | [^F,,,^F,,]6[K:treble] | %45
[K:bass] E,,6 | [^F,,,^F,,]4[K:treble] x2 |[K:bass] [^F,,^C,]6[K:treble] ||[K:E][K:bass] x6 | %49
 B,,,2- B,,, z x2 | x6 | [B,,,B,,]4 x2 |{/E,,} E,,4 ^^F,2 | E,,6 | E,,6 | (E,,2 B,,2 E,2-) | %56
 [E,,B,,]4 B,,2 ||[K:B] =A,,6 | [B,,,F,,]6[K:treble] |[K:bass] =A,6 | z2 z2 B,,2 | x6 | ^E,,6- | %63
 ^E,,6 | [=G,,,=G,,]6- | ([=G,,,=G,,]6 | [B,,,F,,]2) z2 z2 | [=D,,=A,,]4 z2 | x6 ||[M:2/4] x4 | %70
 =G,,2 =F,,2 ||[M:3/4] =E,,2 ^F,,4 | !arpeggio![B,,,F,,]6 |] %73
V:6
 x6 | x6 | E,,6 | x2[K:treble] x4 |[K:bass] x6 | x6 | B,,, z z2 z2 | x6 | x6 | %9
 [G,,,G,,]6[K:treble] |[K:bass] x6 | x6 | x6 | x2[K:treble] !arpeggio![G,=DF]4 | %14
[K:bass] x2[K:treble] !arpeggio![G,=DF]4 |[M:2/4] x4 ||[M:3/4] x6 | x6 |[K:bass] x6 | x6 | x6 || %21
[M:2/4] x4 | x4 ||[M:3/4] [B,,,B,,]6[K:treble] |[K:bass] x2[K:treble] x2 [=d=d']3/2 x/ | %25
[K:bass] x6 | x6 ||[K:C] x6 | x6 | x6 | x6 | x6 | x6 | x6 | x6 | x6 | x6 | x6 | x6 | x6 | x6 | x6 | %42
 x6 | x6 | x3[K:treble] x3 |[K:bass] x6 | x2[K:treble] x4 |[K:bass] x2[K:treble] x4 || %48
[K:E][K:bass] x6 | x6 | x6 | x6 | x6 | x6 | (^B,,C,E,A, C2) | x6 | x6 ||[K:B] [D,F,]6 | %58
 x3[K:treble] x3 |[K:bass] x6 | x6 | x6 | x6 | x6 | x6 | x6 | x6 | x6 | x6 ||[M:2/4] x4 | x4 || %71
[M:3/4] x6 | x6 |] %73
V:7
 x6 | x6 | x6 | x4 (3=ABc | x6 | x6 | x6 | x6 | x3[K:bass] x3 | x3[K:treble] x3 | x6 | x6 | x6 | %13
 x6 | x6 |[M:2/4] x4 ||[M:3/4] x6 | x14/3[K:bass] x4/3 |[K:treble] x6 | x6 | x6 ||[M:2/4] x4 | %22
 x4 ||[M:3/4] x6 | x6 | x6 | x6 ||[K:C] x6 | x6 | x6 |[K:bass] x6 | x6 |[K:treble] x6 | x6 | x6 | %35
 x6 | x6 | x6 | x6 | x6 | x6 | x6 | x6 | x6 | x6 | x6 | x6 | x6 ||[K:E] x6 | x6 | x6 | x6 | x6 | %53
 x6 | x6 | x6 | x6 ||[K:B] x6 | x6 | x6 | x6 | x6 | x6 | x6 | x6 | x6 | x6 | x6 | x6 ||[M:2/4] x4 | %70
 x4 ||[M:3/4] x6 | x6 |] %73
V:8
 x6 | x6 | x6 | x2[K:treble] x4 |[K:bass] x6 | x6 | x6 | x6 | x6 | x4/3[K:treble] x14/3 | %10
[K:bass] x6 | x6 | x6 | x2[K:treble] x4 |[K:bass] x2[K:treble] x4 |[M:2/4] x4 ||[M:3/4] x6 | x6 | %18
[K:bass] x6 | x6 |{^D,,} D,,6 ||[M:2/4] x4 | x4 ||[M:3/4] x2[K:treble] x4 | %24
[K:bass] x2[K:treble] x4 |[K:bass] x6 | x6 ||[K:C] x6 | x6 | x6 | x6 | x6 | C,,4 x2 | x6 | x6 | %35
 x6 | x6 | x6 | z6 | x6 | x6 | x6 | x6 | x6 | ^C,6[K:treble] |[K:bass] x6 | ^C,4[K:treble] x2 | %47
[K:bass] x2[K:treble] x4 ||[K:E][K:bass] x2 [=CE][CE] [^CE]2 | x6 | x6 | x6 | G,4 x2 | x6 | %54
 ^D,E,A,[I:staff -1]C[I:staff +1] x2 | x6 | E,2 [F,A,]2 [E,G,]2 ||[K:B] x6 | x3[K:treble] x3 | %59
[K:bass] x6 | x6 | x6 | x6 | x6 | x6 | x6 | x6 | x6 | x6 ||[M:2/4] x4 | x2 (3(D,^E,D,) || %71
[M:3/4] x2 F,,4 | x6 |] %73
V:9
 x6 | x6 | x6 | x6 | x6 | x6 | x6 | x6 | x3[K:bass] x3 | x3[K:treble] x3 | x6 | x6 | x6 | x6 | x6 | %15
[M:2/4] x4 ||[M:3/4] x6 | x14/3[K:bass] x4/3 |[K:treble] x6 | x6 | x6 ||[M:2/4] x4 | x4 || %23
[M:3/4] x6 | x6 | x6 | (3:2:4x x x/ B/ x4 ||[K:C] x6 | x6 | x6 |[K:bass] x6 | x6 |[K:treble] x6 | %33
 x6 | x6 | x6 | x6 | x6 | x6 | x6 | x6 | x6 | x6 | x6 | x6 | x6 | [^A,^C^F]4 x2 | x6 || %48
[K:E] =A4!>(! ^A2!>)! | x6 | x6 | ED CD x2 | x6 | F2 x4 | x6 | x6 | x6 ||[K:B] x4 ^B,2 | x6 | x6 | %60
 x6 | x6 | x6 | x6 | x6 | x6 | x2 [B,D]4 | x6 | x2 [B,^D]4 ||[M:2/4] x4 | x4 ||[M:3/4] x6 | x6 |] %73

